src/topics/icons/ruby.svg

<svg height="255" preserveAspectRatio="xMidYMid" viewBox="0 0 256 255" width="256" xmlns="http://www.w3.org/2000/svg" xmlns:xlink="http://www.w3.org/1999/xlink"><linearGradient id="a" x1="84.750365%" x2="58.254396%" y1="111.399353%" y2="64.583709%"><stop offset="0" stop-color="#fb7655"/><stop offset=".41" stop-color="#e42b1e"/><stop offset=".99" stop-color="#900"/><stop offset="1" stop-color="#900"/></linearGradient><linearGradient id="b"><stop offset="0" stop-color="#871101"/><stop offset=".99" stop-color="#911209"/><stop offset="1" stop-color="#911209"/></linearGradient><linearGradient id="c" x1="116.651024%" x2="1.74616%" xlink:href="#b" y1="60.890321%" y2="19.28795%"/><linearGradient id="d" x1="75.774402%" x2="38.978136%" xlink:href="#b" y1="219.327131%" y2="7.828682%"/><linearGradient id="e" x1="50.012428%" x2="66.483041%" y1="7.234499%" y2="79.135413%"><stop offset="0" stop-color="#fff"/><stop offset=".23" stop-color="#e57252"/><stop offset=".46" stop-color="#de3b20"/><stop offset=".99" stop-color="#a60003"/><stop offset="1" stop-color="#a60003"/></linearGradient><linearGradient id="f" x1="46.174175%" x2="49.932334%" y1="16.347907%" y2="83.046845%"><stop offset="0" stop-color="#fff"/><stop offset=".23" stop-color="#e4714e"/><stop offset=".56" stop-color="#be1a0d"/><stop offset=".99" stop-color="#a80d00"/><stop offset="1" stop-color="#a80d00"/></linearGradient><linearGradient id="g" x1="36.965357%" x2="49.528232%" y1="15.593647%" y2="92.477633%"><stop offset="0" stop-color="#fff"/><stop offset=".18" stop-color="#e46342"/><stop offset=".4" stop-color="#c82410"/><stop offset=".99" stop-color="#a80d00"/><stop offset="1" stop-color="#a80d00"/></linearGradient><linearGradient id="h" x1="13.608617%" x2="85.763661%" y1="58.345686%" y2="-46.716781%"><stop offset="0" stop-color="#fff"/><stop offset=".54" stop-color="#c81f11"/><stop offset=".99" stop-color="#bf0905"/><stop offset="1" stop-color="#bf0905"/></linearGradient><linearGradient id="i" x1="27.624204%" x2="50.744515%" y1="21.134585%" y2="79.055782%"><stop offset="0" stop-color="#fff"/><stop offset=".31" stop-color="#de4024"/><stop offset=".99" stop-color="#bf190b"/><stop offset="1" stop-color="#bf190b"/></linearGradient><linearGradient id="j" x1="-20.66713%" x2="104.241521%" y1="122.281897%" y2="-6.34211%"><stop offset="0" stop-color="#bd0012"/><stop offset=".07" stop-color="#fff"/><stop offset=".17" stop-color="#fff"/><stop offset=".27" stop-color="#c82f1c"/><stop offset=".33" stop-color="#820c01"/><stop offset=".46" stop-color="#a31601"/><stop offset=".72" stop-color="#b31301"/><stop offset=".99" stop-color="#e82609"/><stop offset="1" stop-color="#e82609"/></linearGradient><linearGradient id="k" x1="58.791961%" x2="11.963656%" y1="65.204966%" y2="50.127562%"><stop offset="0" stop-color="#8c0c01"/><stop offset=".54" stop-color="#990c00"/><stop offset=".99" stop-color="#a80d0e"/><stop offset="1" stop-color="#a80d0e"/></linearGradient><linearGradient id="l" x1="79.31949%" x2="23.088288%" y1="62.753807%" y2="17.887682%"><stop offset="0" stop-color="#7e110b"/><stop offset=".99" stop-color="#9e0c00"/><stop offset="1" stop-color="#9e0c00"/></linearGradient><linearGradient id="m" x1="92.880028%" x2="59.841454%" y1="74.122366%" y2="39.703997%"><stop offset="0" stop-color="#79130d"/><stop offset=".99" stop-color="#9e120b"/><stop offset="1" stop-color="#9e120b"/></linearGradient><radialGradient id="n" cx="32.000801%" cy="40.210047%" r="69.572956%"><stop offset="0" stop-color="#a80d00"/><stop offset=".99" stop-color="#7e0e08"/><stop offset="1" stop-color="#7e0e08"/></radialGradient><radialGradient id="o" cx="13.54938%" cy="40.859922%" r="88.386194%"><stop offset="0" stop-color="#a30c00"/><stop offset=".99" stop-color="#800e08"/><stop offset="1" stop-color="#800e08"/></radialGradient><linearGradient id="p" x1="56.570196%" x2="3.104807%" y1="101.716594%" y2="11.99326%"><stop offset="0" stop-color="#8b2114"/><stop offset=".43" stop-color="#9e100a"/><stop offset=".99" stop-color="#b3100c"/><stop offset="1" stop-color="#b3100c"/></linearGradient><linearGradient id="q" x1="30.869873%" x2="92.470763%" y1="35.598976%" y2="100.693616%"><stop offset="0" stop-color="#b31000"/><stop offset=".44" stop-color="#910f08"/><stop offset=".99" stop-color="#791c12"/><stop offset="1" stop-color="#791c12"/></linearGradient><path d="m197.467337 167.763618-145.5212063 86.409648 188.4224323-12.785849 14.512241-189.9944522z" fill="url(#a)"/><path d="m240.677307 241.257487-16.194895-111.77809-44.113045 58.249648z" fill="url(#c)"/><path d="m240.896 241.257487-118.646352-9.313768-69.6731656 21.986412z" fill="url(#d)"/><path d="m52.7437186 253.954573 29.639397-97.0999-65.2221106 13.946211z" fill="url(#e)"/><path d="m180.357789 188.050653-27.272362-106.8253264-78.0478391 73.1593974z" fill="url(#f)"/><path d="m248.693065 82.7304523-73.776884-60.2564825-20.544322 66.4184925z" fill="url(#g)"/><path d="m214.190955.99055276-43.391357 23.97909544-27.375276-24.30070348z" fill="url(#h)"/><path d="m0 203.37206 18.1772864-33.151356-14.70391957-39.493468z" fill="url(#i)"/><path d="m2.49567839 129.479397 14.79396981 41.963417 64.2830151-14.422191 73.3909547-68.2066331 20.711558-65.7868542-32.612342-23.0271357-55.445226 20.7501508c-17.4684623 16.2476381-51.3659497 48.3955778-52.5880603 49.000201-1.2092462.6174874-22.3839196 40.6383922-32.53386931 59.7290452z" fill="#fff"/><path d="m54.441809 54.0944724c37.8596985-37.5380905 86.666935-59.71618094 105.397387-40.8184925 18.718874 18.8976884-1.13206 64.8233166-38.991759 102.3485431-37.8596983 37.525226-86.0623114 60.925427-104.7798993 42.027738-18.73045227-18.884824.5145729-66.0325625 38.3742713-103.5577886z" fill="url(#j)"/><path d="m52.7437186 253.91598 29.4078392-97.408643 97.6659292 31.37608c-35.312562 33.112764-74.587336 61.105528-127.0737684 66.032563z" fill="url(#k)"/><path d="m155.092261 88.6223116 25.072563 99.3125624c29.49789-31.015879 55.972663-64.360201 68.938613-105.6032157z" fill="url(#l)"/><path d="m248.847437 82.8333668c10.034171-30.282613 12.349749-73.7254271-34.966512-81.79135675l-38.824523 21.44482415z" fill="url(#m)"/><path d="m0 202.934673c1.38934673 49.979176 37.4480402 50.72402 52.8080402 51.162694l-35.479799-82.860382z" fill="#9e1209"/><path d="m155.232482 88.7766834c22.666935 13.9320606 68.349428 41.9119596 69.275659 42.4265326 1.439517.810452 19.695276-30.784322 23.837588-48.6399999z" fill="url(#n)"/><path d="m82.1129648 156.507337 39.3133672 75.84804c23.245829-12.607035 41.448844-27.967035 58.121005-44.420503z" fill="url(#o)"/><path d="m17.1738693 171.339899-5.5702512 66.328443c10.5101507 14.356583 24.9696482 15.604422 40.1366834 14.485226-10.9732663-27.310955-32.8940703-81.92-34.5664322-80.813669z" fill="url(#p)"/><path d="m174.826131 22.6540704 78.099296 10.960402c-4.16804-17.6627136-16.96804-29.06050255-38.78593-32.62391964z" fill="url(#q)"/></svg>

<?xml version="1.0" encoding="UTF-8" standalone="no" ?>
<svg width="256px" height="255px" viewBox="0 0 256 255" version="1.1" xmlns="http://www.w3.org/2000/svg" xmlns:xlink="http://www.w3.org/1999/xlink" preserveAspectRatio="xMidYMid">
    <defs>
        <linearGradient x1="84.7503645%" y1="111.399353%" x2="58.2543962%" y2="64.5837087%" id="linearGradient-1">
            <stop stop-color="#FB7655" offset="0%"></stop>
            <stop stop-color="#FB7655" offset="0%"></stop>
            <stop stop-color="#E42B1E" offset="41%"></stop>
            <stop stop-color="#990000" offset="99%"></stop>
            <stop stop-color="#990000" offset="100%"></stop>
        </linearGradient>
        <linearGradient x1="116.651024%" y1="60.8903211%" x2="1.74616041%" y2="19.2879503%" id="linearGradient-2">
            <stop stop-color="#871101" offset="0%"></stop>
            <stop stop-color="#871101" offset="0%"></stop>
            <stop stop-color="#911209" offset="99%"></stop>
            <stop stop-color="#911209" offset="100%"></stop>
        </linearGradient>
        <linearGradient x1="75.7744024%" y1="219.327131%" x2="38.9781357%" y2="7.82868176%" id="linearGradient-3">
            <stop stop-color="#871101" offset="0%"></stop>
            <stop stop-color="#871101" offset="0%"></stop>
            <stop stop-color="#911209" offset="99%"></stop>
            <stop stop-color="#911209" offset="100%"></stop>
        </linearGradient>
        <linearGradient x1="50.012428%" y1="7.23449921%" x2="66.4830414%" y2="79.1354134%" id="linearGradient-4">
            <stop stop-color="#FFFFFF" offset="0%"></stop>
            <stop stop-color="#FFFFFF" offset="0%"></stop>
            <stop stop-color="#E57252" offset="23%"></stop>
            <stop stop-color="#DE3B20" offset="46%"></stop>
            <stop stop-color="#A60003" offset="99%"></stop>
            <stop stop-color="#A60003" offset="100%"></stop>
        </linearGradient>
        <linearGradient x1="46.1741749%" y1="16.347907%" x2="49.9323342%" y2="83.0468449%" id="linearGradient-5">
            <stop stop-color="#FFFFFF" offset="0%"></stop>
            <stop stop-color="#FFFFFF" offset="0%"></stop>
            <stop stop-color="#E4714E" offset="23%"></stop>
            <stop stop-color="#BE1A0D" offset="56%"></stop>
            <stop stop-color="#A80D00" offset="99%"></stop>
            <stop stop-color="#A80D00" offset="100%"></stop>
        </linearGradient>
        <linearGradient x1="36.9653573%" y1="15.5936471%" x2="49.5282324%" y2="92.4776332%" id="linearGradient-6">
            <stop stop-color="#FFFFFF" offset="0%"></stop>
            <stop stop-color="#FFFFFF" offset="0%"></stop>
            <stop stop-color="#E46342" offset="18%"></stop>
            <stop stop-color="#C82410" offset="40%"></stop>
            <stop stop-color="#A80D00" offset="99%"></stop>
            <stop stop-color="#A80D00" offset="100%"></stop>
        </linearGradient>
        <linearGradient x1="13.6086166%" y1="58.3456855%" x2="85.7636612%" y2="-46.7167814%" id="linearGradient-7">
            <stop stop-color="#FFFFFF" offset="0%"></stop>
            <stop stop-color="#FFFFFF" offset="0%"></stop>
            <stop stop-color="#C81F11" offset="54%"></stop>
            <stop stop-color="#BF0905" offset="99%"></stop>
            <stop stop-color="#BF0905" offset="100%"></stop>
        </linearGradient>
        <linearGradient x1="27.6242038%" y1="21.1345847%" x2="50.7445145%" y2="79.0557818%" id="linearGradient-8">
            <stop stop-color="#FFFFFF" offset="0%"></stop>
            <stop stop-color="#FFFFFF" offset="0%"></stop>
            <stop stop-color="#DE4024" offset="31%"></stop>
            <stop stop-color="#BF190B" offset="99%"></stop>
            <stop stop-color="#BF190B" offset="100%"></stop>
        </linearGradient>
        <linearGradient x1="-20.6671297%" y1="122.281897%" x2="104.241521%" y2="-6.34211007%" id="linearGradient-9">
            <stop stop-color="#BD0012" offset="0%"></stop>
            <stop stop-color="#BD0012" offset="0%"></stop>
            <stop stop-color="#FFFFFF" offset="7%"></stop>
            <stop stop-color="#FFFFFF" offset="17%"></stop>
            <stop stop-color="#C82F1C" offset="27%"></stop>
            <stop stop-color="#820C01" offset="33%"></stop>
            <stop stop-color="#A31601" offset="46%"></stop>
            <stop stop-color="#B31301" offset="72%"></stop>
            <stop stop-color="#E82609" offset="99%"></stop>
            <stop stop-color="#E82609" offset="100%"></stop>
        </linearGradient>
        <linearGradient x1="58.7919609%" y1="65.2049657%" x2="11.9636556%" y2="50.1275621%" id="linearGradient-10">
            <stop stop-color="#8C0C01" offset="0%"></stop>
            <stop stop-color="#8C0C01" offset="0%"></stop>
            <stop stop-color="#990C00" offset="54%"></stop>
            <stop stop-color="#A80D0E" offset="99%"></stop>
            <stop stop-color="#A80D0E" offset="100%"></stop>
        </linearGradient>
        <linearGradient x1="79.3194899%" y1="62.7538068%" x2="23.088288%" y2="17.8876818%" id="linearGradient-11">
            <stop stop-color="#7E110B" offset="0%"></stop>
            <stop stop-color="#7E110B" offset="0%"></stop>
            <stop stop-color="#9E0C00" offset="99%"></stop>
            <stop stop-color="#9E0C00" offset="100%"></stop>
        </linearGradient>
        <linearGradient x1="92.8800277%" y1="74.1223655%" x2="59.8414537%" y2="39.7039965%" id="linearGradient-12">
            <stop stop-color="#79130D" offset="0%"></stop>
            <stop stop-color="#79130D" offset="0%"></stop>
            <stop stop-color="#9E120B" offset="99%"></stop>
            <stop stop-color="#9E120B" offset="100%"></stop>
        </linearGradient>
        <radialGradient cx="32.0008013%" cy="40.2100469%" fx="32.0008013%" fy="40.2100469%" r="69.5729556%" id="radialGradient-13">
            <stop stop-color="#A80D00" offset="0%"></stop>
            <stop stop-color="#A80D00" offset="0%"></stop>
            <stop stop-color="#7E0E08" offset="99%"></stop>
            <stop stop-color="#7E0E08" offset="100%"></stop>
        </radialGradient>
        <radialGradient cx="13.5493795%" cy="40.859922%" fx="13.5493795%" fy="40.859922%" r="88.3861936%" id="radialGradient-14">
            <stop stop-color="#A30C00" offset="0%"></stop>
            <stop stop-color="#A30C00" offset="0%"></stop>
            <stop stop-color="#800E08" offset="99%"></stop>
            <stop stop-color="#800E08" offset="100%"></stop>
        </radialGradient>
        <linearGradient x1="56.5701955%" y1="101.716594%" x2="3.10480737%" y2="11.9932603%" id="linearGradient-15">
            <stop stop-color="#8B2114" offset="0%"></stop>
            <stop stop-color="#8B2114" offset="0%"></stop>
            <stop stop-color="#9E100A" offset="43%"></stop>
            <stop stop-color="#B3100C" offset="99%"></stop>
            <stop stop-color="#B3100C" offset="100%"></stop>
        </linearGradient>
        <linearGradient x1="30.8698732%" y1="35.5989756%" x2="92.4707626%" y2="100.693616%" id="linearGradient-16">
            <stop stop-color="#B31000" offset="0%"></stop>
            <stop stop-color="#B31000" offset="0%"></stop>
            <stop stop-color="#910F08" offset="44%"></stop>
            <stop stop-color="#791C12" offset="99%"></stop>
            <stop stop-color="#791C12" offset="100%"></stop>
        </linearGradient>
    </defs>
    <g>
        <path d="M197.467337,167.763618 L51.9461307,254.173266 L240.368563,241.387417 L254.880804,51.3929648 L197.467337,167.763618 Z" fill="url(#linearGradient-1)"></path>
        <path d="M240.677307,241.257487 L224.482412,129.479397 L180.369367,187.729045 L240.677307,241.257487 Z" fill="url(#linearGradient-2)"></path>
        <path d="M240.896,241.257487 L122.249648,231.943719 L52.5764824,253.930131 L240.896,241.257487 Z" fill="url(#linearGradient-3)"></path>
        <path d="M52.7437186,253.954573 L82.3831156,156.854673 L17.161005,170.800884 L52.7437186,253.954573 Z" fill="url(#linearGradient-4)"></path>
        <path d="M180.357789,188.050653 L153.085427,81.2253266 L75.0375879,154.384724 L180.357789,188.050653 Z" fill="url(#linearGradient-5)"></path>
        <path d="M248.693065,82.7304523 L174.916181,22.4739698 L154.371859,88.8924623 L248.693065,82.7304523 Z" fill="url(#linearGradient-6)"></path>
        <path d="M214.190955,0.990552764 L170.799598,24.9696482 L143.424322,0.668944724 L214.190955,0.990552764 Z" fill="url(#linearGradient-7)"></path>
        <path d="M0,203.37206 L18.1772864,170.220704 L3.47336683,130.727236 L0,203.37206 Z" fill="url(#linearGradient-8)"></path>
        <path d="M2.49567839,129.479397 L17.2896482,171.442814 L81.5726633,157.020623 L154.963618,88.8139899 L175.675176,23.0271357 L143.062834,0 L87.617608,20.7501508 C70.1491457,36.9977889 36.2516583,69.1457286 35.0295477,69.7503518 C33.8203015,70.3678392 12.6456281,110.388744 2.49567839,129.479397 L2.49567839,129.479397 Z" fill="#FFFFFF"></path>
        <path d="M54.441809,54.0944724 C92.3015075,16.5563819 141.108744,-5.62170854 159.839196,13.2759799 C178.55807,32.1736683 158.707136,78.0992965 120.847437,115.624523 C82.9877387,153.149749 34.7851256,176.54995 16.0675377,157.652261 C-2.66291457,138.767437 16.5821106,91.6196985 54.441809,54.0944724 L54.441809,54.0944724 Z" fill="url(#linearGradient-9)"></path>
        <path d="M52.7437186,253.91598 L82.1515578,156.507337 L179.817487,187.883417 C144.504925,220.996181 105.230151,248.988945 52.7437186,253.91598 L52.7437186,253.91598 Z" fill="url(#linearGradient-10)"></path>
        <path d="M155.092261,88.6223116 L180.164824,187.934874 C209.662714,156.918995 236.137487,123.574673 249.103437,82.3316583 L155.092261,88.6223116 L155.092261,88.6223116 Z" fill="url(#linearGradient-11)"></path>
        <path d="M248.847437,82.8333668 C258.881608,52.5507538 261.197186,9.1079397 213.880925,1.04201005 L175.056402,22.4868342 L248.847437,82.8333668 L248.847437,82.8333668 Z" fill="url(#linearGradient-12)"></path>
        <path d="M0,202.934673 C1.38934673,252.913849 37.4480402,253.658693 52.8080402,254.097367 L17.3282412,171.236985 L0,202.934673 L0,202.934673 Z" fill="#9E1209"></path>
        <path d="M155.232482,88.7766834 C177.899417,102.708744 223.58191,130.688643 224.508141,131.203216 C225.947658,132.013668 244.203417,100.418894 248.345729,82.5632161 L155.232482,88.7766834 L155.232482,88.7766834 Z" fill="url(#radialGradient-13)"></path>
        <path d="M82.1129648,156.507337 L121.426332,232.355377 C144.672161,219.748342 162.875176,204.388342 179.547337,187.934874 L82.1129648,156.507337 L82.1129648,156.507337 Z" fill="url(#radialGradient-14)"></path>
        <path d="M17.1738693,171.339899 L11.6036181,237.668342 C22.1137688,252.024925 36.5732663,253.272764 51.7403015,252.153568 C40.7670352,224.842613 18.8462312,170.233568 17.1738693,171.339899 L17.1738693,171.339899 Z" fill="url(#linearGradient-15)"></path>
        <path d="M174.826131,22.6540704 L252.925427,33.6144724 C248.757387,15.9517588 235.957387,4.55396985 214.139497,0.990552764 L174.826131,22.6540704 L174.826131,22.6540704 Z" fill="url(#linearGradient-16)"></path>
    </g>
</svg>
